assets/icons/librescoot-ota-status-installing.svg

<svg xmlns="http://www.w3.org/2000/svg" width="144" height="144" fill="none" viewBox="0 0 144 144"><g clip-path="url(#a)"><mask id="b" width="144" height="144" x="0" y="0" maskUnits="userSpaceOnUse" style="mask-type:alpha"><path fill="#d9d9d9" d="M0 0h144v144H0z"/></mask><g mask="url(#b)"><path fill="#fff" d="M21 120q-3.6 0-6.3-2.7T12 111V33q0-3.6 2.7-6.3T21 24h37.5v9H21v78h102V33H85.5v-9H123q3.6 0 6.3 2.7T132 33v78q0 3.6-2.7 6.3T123 120zm51-27.75-30-30 6.45-6.45L67.5 74.85V24h9v50.85L95.55 55.8l6.45 6.45z"/></g></g><defs><clipPath id="a"><path fill="#fff" d="M0 0h144v144H0z"/></clipPath></defs></svg>

<svg width="144" height="144" viewBox="0 0 144 144" fill="none" xmlns="http://www.w3.org/2000/svg">
<g clip-path="url(#clip0_1066_439)">
<mask id="mask0_1066_439" style="mask-type:alpha" maskUnits="userSpaceOnUse" x="0" y="0" width="144" height="144">
<rect width="144" height="144" fill="#D9D9D9"/>
</mask>
<g mask="url(#mask0_1066_439)">
<path d="M21 120C18.6 120 16.5 119.1 14.7 117.3C12.9 115.5 12 113.4 12 111V33C12 30.6 12.9 28.5 14.7 26.7C16.5 24.9 18.6 24 21 24H58.5V33H21V111H123V33H85.5V24H123C125.4 24 127.5 24.9 129.3 26.7C131.1 28.5 132 30.6 132 33V111C132 113.4 131.1 115.5 129.3 117.3C127.5 119.1 125.4 120 123 120H21ZM72 92.25L42 62.25L48.45 55.8L67.5 74.85V24H76.5V74.85L95.55 55.8L102 62.25L72 92.25Z" fill="white"/>
</g>
</g>
<defs>
<clipPath id="clip0_1066_439">
<rect width="144" height="144" fill="white"/>
</clipPath>
</defs>
</svg>
